X: 12493
T: Farewell To Erin
R: reel
M: 4/4
K: Dmajor
|:D2 (3FED ADFD|Addc defz|D2 (3FED ADFD|(3Bcd AF E2FE|
D2 (3FED ADFD|Addc defc|d2cA (3Bcd AF|1 (3Bcd AF E2FE:|2 (3Bcd AF E2Ac||
|:d2dB AFF2|AFBF AFF2|d2dB AFF2|(3Bcd AF E2Ac|
d2dB AFF2|BFF2 ABde|faec d2cA|1 (3Bcd AF E2Ac:|2 (3Bcd AF E2FE||

